X: 473
T: Chinese Breakdown
B: jims roots
M:2/4
L:1/16
R: reel
Q: 1/4=100
K:C
V:1 
cc | "C"c2G2 A2E2 | GE2D E2cc | c2G2 A2E2 | "G"GF2E F2BB | B2G2 A2G2 |
AB2A B2BB | B2G2 A2E2 | "C"GE2D E2cc | c2G2 A2E2 | GE2D E2E2 | "(C7)"CC2C D2E2 |
"F"FFFF- F2F2 | d2 Ad2 Ac2 | "G"B2 AB2 AA2 | G2GG A2B2 | "C"(3 ccc (3ccc c2 :|
cc | "C"c2e2 e2c2 | ^de2 de2 e2 | c2e2 d2c2 | "G"B2 _B=B2 _B=B2 | g2 gg2g ge |
f2 ff2e ee | e2d2 B2G2 | "C"e2 ee2 ee2 | G2A2 B2c2 | e2 ^de2 ^de2 | "(C7)"e2 ff2 ee2 |
"F"AAAA- AAA2 | d2 Ad2 Ac2 | "G"B2 AB2 AA2 | G2G2 A2B2 | "C"cccc- cc || 
% abcbook-tune_id 6298c24560b31b37028be120


% abcbook-boost 0
% abcbook-tablature 
% abcbook-transpose 
% abcbook-lastupdated 1654178373718
% abcbook-soundfonts 
% abcbook-repeats 1


